dist/img/svg/download.svg

<svg width="16" height="18" viewBox="0 0 16 18" fill="none" xmlns="http://www.w3.org/2000/svg">
<path fill-rule="evenodd" clip-rule="evenodd" d="M13.7167 12.071C13.7167 11.5313 14.1544 11.0937 14.694 11.0937C15.2337 11.0937 15.6713 11.5313 15.6713 12.071V14.0117C15.6713 15.985 14.0639 17.5924 12.0898 17.5924H3.58074C1.60741 17.5924 0 15.9851 0 14.0117V12.071C0 11.5313 0.437648 11.0937 0.977278 11.0937C1.51693 11.0937 1.95456 11.5313 1.95456 12.071V14.0117C1.95456 14.9058 2.68661 15.6378 3.5807 15.6378H12.0905C12.9846 15.6378 13.7167 14.9065 13.7167 14.0117L13.7167 12.071ZM4.50378 10.2813L7.11952 12.7365C7.29819 12.9282 7.55281 13.0483 7.83567 13.0483C8.11852 13.0483 8.37313 12.9282 8.55109 12.7365L11.1668 10.2813C11.5589 9.91238 11.5777 9.29534 11.2088 8.90327C10.8399 8.5112 10.2228 8.49238 9.83075 8.86132L8.81223 9.81691V0.977278C8.81223 0.43763 8.37459 0 7.83496 0C7.29531 0 6.85768 0.437648 6.85768 0.977278V9.81617L5.83916 8.86057C5.44708 8.49165 4.83005 8.51046 4.46112 8.90253C4.0922 9.2946 4.11101 9.91164 4.50308 10.2806L4.50378 10.2813Z" fill="currentColor"/>
</svg>

<svg width="16" height="18" viewBox="0 0 16 18" fill="none" xmlns="http://www.w3.org/2000/svg"><path fill-rule="evenodd" clip-rule="evenodd" d="M13.717 12.071a.977.977 0 011.954 0v1.94a3.586 3.586 0 01-3.581 3.581H3.58A3.586 3.586 0 010 14.012V12.07a.977.977 0 011.955 0v1.94c0 .895.732 1.627 1.626 1.627h8.51a1.63 1.63 0 001.626-1.626V12.07zm-9.213-1.79l2.616 2.455a.976.976 0 001.431 0l2.616-2.455a.975.975 0 00-1.336-1.42l-1.019.956V.977a.977.977 0 00-1.954 0v8.84L5.839 8.86a.975.975 0 00-1.336 1.42z" fill="currentColor"/></svg>.7167 14.9065 13.7167 14.0117L13.7167 12.071ZM4.50378 10.2813L7.11952 12.7365C7.29819 12.9282 7.55281 13.0483 7.83567 13.0483C8.11852 13.0483 8.37313 12.9282 8.55109 12.7365L11.1668 10.2813C11.5589 9.91238 11.5777 9.29534 11.2088 8.90327C10.8399 8.5112 10.2228 8.49238 9.83075 8.86132L8.81223 9.81691V0.977278C8.81223 0.43763 8.37459 0 7.83496 0C7.29531 0 6.85768 0.437648 6.85768 0.977278V9.81617L5.83916 8.86057C5.44708 8.49165 4.83005 8.51046 4.46112 8.90253C4.0922 9.2946 4.11101 9.91164 4.50308 10.2806L4.50378 10.2813Z" fill="currentColor"/>
</svg>
